svgs/sharp-regular/buildings.svg

<svg xmlns="http://www.w3.org/2000/svg" viewBox="0 0 512 512"><!--! Font Awesome Pro 6.6.0 by @fontawesome - https://fontawesome.com License - https://fontawesome.com/license (Commercial License) Copyright 2024 Fonticons, Inc. --><path d="M464 48l0 416-192 0 0-416 192 0zM272 0L224 0l0 48 0 416 0 48 48 0 192 0 48 0 0-48 0-416 0-48L464 0 272 0zM192 128L24 128 0 128l0 24L0 488l0 24 24 0 168 0 0-48L48 464l0-288 144 0 0-48zM160 320l-64 0 0 64 64 0 0-64zm176 32l64 0 0-64-64 0 0 64zM160 224l-64 0 0 64 64 0 0-64zM336 96l0 64 64 0 0-64-64 0zm64 160l0-64-64 0 0 64 64 0z"/></svg>

<svg xmlns="http://www.w3.org/2000/svg" viewBox="0 0 512 512"><!--! Font Awesome Pro 6.4.0 by @fontawesome - https://fontawesome.com License - https://fontawesome.com/license (Commercial License) Copyright 2023 Fonticons, Inc. --><path d="M464 48V464H272V48H464zM272 0H224V48 464v48h48H464h48V464 48 0H464 272zM192 128H24 0v24V488v24H24 192V464H48V176H192V128zM160 320H96v64h64V320zm176 32h64V288H336v64zM160 224H96v64h64V224zM336 96v64h64V96H336zm64 160V192H336v64h64z"/></svg>
